!!!!SEGMENT: pl-sa--86-a-ii-26--001-001_pych-leopold--missa-brevis-in-d-kyrie.krn
!!!cenid: 17xx:367
!!!COM: Pych, Leopold
!!!COM-rismID: pe30018039
!!!CDT: <1758->1774
!!!CNT:
!!!OPR: Missa brevis in D
!!!OTL: Kyrie
!!!OMV: 001
!!!PDT:
!!!AGN: Sacred; Mass
!!!YEC: Copyright 2022 Narodowy Instytut Fryderyka Chopina (https://polishscores.org)
!!!YEM: License CC-BY-4.0 (https://creativecommons.org/licenses/by/4.0)
!!!SMS-siglum: PL-SA
!!!SMS-shelfmark: 86/A II 26
!!!SMS-shelfwork: 001-001 M
!!!NIFC-rismSourceID: 1001035464
!!!NIFC-rismChildID: 1001035464
!!!NIFC-islandoraID: none
!!!URL-pdf-islandora:
!!!URL-scan: https://bc.bdsandomierz.pl/dlibra/publication/1364/edition/1332/content @EN{Scan in the Sandomierz Diocese Digital Library} @PL{Skany w portalu Cyfrowa Biblioteka Diecezjalna w Sandomierzu}
!!!IIIF:
!!!ONB-nifc: UWAGA: części Mszy: Kyrie, Gloria, Credo, Sanctus, Agnus, Dona
!!!AIN: 3 empty 1 organ 2 violn 1 vox
!!!key:
**kern	**fba	**kern	**dynam	**kern	**dynam	**kern	**text	**kern	**text	**kern	**kern
*	*	*group3	*	*group3	*	*group2	*	*group2	*	*group1	*group1
*part7	*	*part6	*	*part5	*	*part4	*	*part3	*	*part2	*part1
*staff7	*	*staff6	*	*staff5	*	*staff4	*	*staff3	*	*staff2	*staff1
*Iorgan	*	*Ivioln	*	*Ivioln	*	*Iempty	*	*Ivox	*	*Iempty	*Iempty
*I"Organo	*	*I"Violino 2do	*	*I"Violino 1mo	*	*I"Baſso	*	*I"Canto	*	*I"Clarino 2do ex D	*I"Clarino 1mo ex D
*I'org	*	*I'vl 2	*	*I'vl 1	*	*I'B	*	*I'C	*	*I'clno 2	*I'clno 1
*clefF4	*	*clefG2	*	*clefG2	*	*clefF4	*	*clefC1	*	*clefG2	*clefG2
*	*	*	*	*	*	*	*	*	*	*ITrd-1c-2	*ITrd-1c-2
*k[f#c#]	*	*k[f#c#]	*	*k[f#c#]	*	*k[f#c#]	*	*k[c#f#]	*	*k[f#c#]	*k[f#c#]
*D:	*	*D:	*	*D:	*	*D:	*	*D:	*	*D:	*D:
*M4/4	*	*M4/4	*	*M4/4	*	*M4/4	*	*M4/4	*	*M4/4	*M4/4
*met(c)	*	*met(c)	*	*met(c)	*	*met(c)	*	*met(c)	*	*met(c)	*met(c)
=1	=1	=1	=1	=1	=1	=1	=1	=1	=1	=1	=1
!	!	!	!	!	!	!	!	!LO:TX:a:t=P:problem=krzyżyki cc# f#	!	!	!
!LO:TX:b:Bi:t=Kirye	!	!	!	!LO:TX:b:i:t=Kyrie	!	!	!	!	!	!LO:TX:b:i:t=Kirye	!LO:TX:b:i:t=Kyrie
!LO:TX:a:Bi:t=Ada Tutti	!	!LO:TX:b:t=Kirye	!	!LO:TX:a:i:t=Adagio	!	!LO:TX:a:t=Adagio	!	!LO:TX:a:i:t=Adagio	!	!LO:TX:a:i:t=Ada	!LO:TX:a:i:t=Adagio
8D\L	.	4r	.	4ff# 4a 4d/	.	4.D\	Ki-	4.dd\	Ki-	4dd\	4ff#\
8D\	.	.	.	.	.	.	.	.	.	.	.
8D\	.	4ff# 4a 4d/	.	4r	.	.	.	.	.	4dd\	4ff#\
8D\J	.	.	.	.	.	8D\	-ry-	8dd\	-ry-	.	.
!	!	!	!	!LO:N:vis=16	!	!	!	!	!	!	!
4A\	.	16.ee\LL	.	16.ee\LL	.	4A\	-e	4cc#\	-e	4a/	4ee\
.	.	32a\K	.	32a\K	.	.	.	.	.	.	.
.	.	16.cc#\	.	16.cc#\	.	.	.	.	.	.	.
.	.	32ee\JJk	.	32ee\JJk	.	.	.	.	.	.	.
!	!	!LO:TX:a:t=P:problem=mixed beam	!	!LO:TX:a:t=P:problem=mixed beam	!	!	!	!	!	!	!
4A\	.	16.aa\LL	.	16.aa\LL	.	4A\	e-	8r	.	4r	4r
.	.	32a/K	.	32a/K	.	.	.	.	.	.	.
.	.	16.aa\	.	16.aa\	.	.	.	8cc#\	e-	.	.
.	.	32gg\JJk	.	32gg\JJk	.	.	.	.	.	.	.
=2	=2	=2	=2	=2	=2	=2	=2	=2	=2	=2	=2
8d\L	.	8.ff#\L	.	8.ff#\L	.	4d\	-lei-	(4dd\	-lei-	8dd\L	8ff#\L
8B\	.	.	.	.	.	.	.	.	.	8dd\J	8ff#\J
.	.	16dd#X\Jk	.	16ff#\Jk	.	.	.	.	.	.	.
8B\	.	16dd#\LL	.	16.ff#\LL	.	4B\	.	4dd#X\)	.	16dd\LL	16ff#\LL
.	.	16ff#\	.	.	.	.	.	.	.	16ff#\	16aa\
.	.	.	.	32aa\K	.	.	.	.	.	.	.
8B\J	.	16ee\	.	16.gg\	.	.	.	.	.	16ee\	16gg\
.	.	16dd#\JJ	.	.	.	.	.	.	.	16dd\JJ	16ff#\JJ
.	.	.	.	32ff#\JJk	.	.	.	.	.	.	.
4E\	.	4ee\	.	16.gg\LL	.	4E\	-son	4ee\	-son	4a/	4ee\
.	.	.	.	32ee\K	.	.	.	.	.	.	.
.	.	.	.	16.cc#\	.	.	.	.	.	.	.
.	.	.	.	32ee\JJk	.	.	.	.	.	.	.
!	!	!	!	!LO:TX:a:t=P:problem=mixed beam	!	!	!	!	!	!	!
4A\	.	16.a\LL	.	16.a/LL	.	4A\	e-	4cc#\	e-	8r	8r
.	.	32ee\K	.	32gg\K	.	.	.	.	.	.	.
.	.	16.dd#\	.	16.ff#\	.	.	.	.	.	8a/	8ee\
.	.	32cc#\JJk	.	32ee\JJk	.	.	.	.	.	.	.
=3	=3	=3	=3	=3	=3	=3	=3	=3	=3	=3	=3
*	*	*	*	*	*	*	*	*2\right	*	*	*
4d\	.	4dd\	.	16.ff#\LL	.	4F#\	-lei-	2ddn\	-lei-	4dd\	4ff#\
.	.	.	.	32dd\K	.	.	.	.	.	.	.
.	.	.	.	16.ff#\	.	.	.	.	.	.	.
.	.	.	.	32aa\JJk	.	.	.	.	.	.	.
!	!	!LO:N:vis=16	!	!	!	!	!	!	!	!	!
4D/	.	16.r	.	16.ddd\LL	.	4D\	.	.	.	8r	8r
.	.	32ff#\KLL	.	32ddd\K	.	.	.	.	.	.	.
.	.	16.ff#\	.	16.ddd\	.	.	.	.	.	8dd\	8ff#\
.	.	32ff#\JJk	.	32ddd\JJk	.	.	.	.	.	.	.
16A\LL	#	4ee\	.	4ccc#\	.	4A\	-son	4cc#\	-son	4a/	4ee\
16A\	.	.	.	.	.	.	.	.	.	.	.
16A\	.	.	.	.	.	.	.	.	.	.	.
16A\JJ	.	.	.	.	.	.	.	.	.	.	.
!	!	!LO:N:vis=16	!	!LO:N:vis=16	!	!	!	!	!	!	!
4A\	.	16.r	.	16.r	.	4A\	e-	4cc#\	e-	8r	8r
.	.	32ee\KLL	.	32ccc#\KLL	.	.	.	.	.	.	.
.	.	16.ee\	.	16.ccc#\	.	.	.	.	.	8a/	8ee\
.	.	32ee\JJk	.	32ccc#\JJk	.	.	.	.	.	.	.
=4	=4	=4	=4	=4	=4	=4	=4	=4	=4	=4	=4
*	*	*	*	*	*	*2\right	*	*	*	*	*
!	!	!	!	!LO:N:vis=4.	!	!	!	!	!	!	!
16A\LL	6 4	4ff#\	.	4ddd\	.	2A\	-lei-	(4dd\	-lei-	4dd\	4ff#\
16A\	.	.	.	.	.	.	.	.	.	.	.
16A\	.	.	.	.	.	.	.	.	.	.	.
16A\JJ	.	.	.	.	.	.	.	.	.	.	.
!	!	!	!	!LO:LB:g=original	!	!	!	!	!	!	!
!	!	!LO:N:vis=16	!	!LO:N:vis=16	!	!	!	!	!	!	!
4A\	.	16.r	.	16.r	.	.	.	4ff#\	.	4dd\	4ff#\
.	.	32ff#\KLL	.	32ddd\KLL	.	.	.	.	.	.	.
.	.	16.ff#\	.	16.ddd\	.	.	.	.	.	.	.
.	.	32ff#\JJk	.	32ddd\JJk	.	.	.	.	.	.	.
16A\LL	#	4ee\	.	4ccc#\	.	4A\	-son	4ee\)	-son	2rg	2rg
16A\	.	.	.	.	.	.	.	.	.	.	.
16A\	.	.	.	.	.	.	.	.	.	.	.
16A\JJ	.	.	.	.	.	.	.	.	.	.	.
4A\	.	16.aa\LL	.	16aa\LL	.	4r	.	4r	.	.	.
.	.	.	.	16ee\	.	.	.	.	.	.	.
.	.	32ee\K	.	.	.	.	.	.	.	.	.
.	.	16.cc#\	.	16cc#\	.	.	.	.	.	.	.
.	.	.	.	16a\JJ	.	.	.	.	.	.	.
.	.	32a\JJk	.	.	.	.	.	.	.	.	.
!	!	!LO:LB:g=original	!	!	!	!	!	!	!	!	!
=5	=5	=5	=5	=5	=5	=5	=5	=5	=5	=5	=5
!	!	!	!	!	!	!	!	!	!	!LO:TX:a:t=P:problem=brak taktu	!LO:TX:a:t=P:problem=brak taktu
4D\	.	8ff#L 8a 8d/	.	8ff#L 8a 8d/	.	4r	.	8r	.	1ryy	1ryy
.	.	8dd/J	.	8d/J	.	.	.	8d/	e-	.	.
8r	.	4dd\	.	4dd\	.	8r	.	4dd\	-lei-	.	.
8D\	.	.	.	.	.	8D\	e-	.	.	.	.
*tremolo	*	*	*	*	*	*	*	*	*	*	*
*2\right	*	*	*	*	*	*	*	*	*	*	*
16B-\LL	.	16dd\LL	.	16ffn\LL	.	2B-X\	-lei-	2dd\	.	.	.
16B-\	.	16dd\	.	16ff\	.	.	.	.	.	.	.
16B-\	.	16dd\	.	16ff\	.	.	.	.	.	.	.
16B-\	.	16dd\JJ	.	16ff\JJ	.	.	.	.	.	.	.
*	*	*tremolo	*	*tremolo	*	*	*	*	*	*	*
16B-\	.	16dd\LL	.	16ff\LL	.	.	.	.	.	.	.
16B-\	.	16dd\	.	16ff\	.	.	.	.	.	.	.
16B-\	.	16dd\	.	16ff\	.	.	.	.	.	.	.
16B-\JJ	.	16dd\JJ	.	16ff\JJ	.	.	.	.	.	.	.
*Xtremolo	*	*Xtremolo	*	*Xtremolo	*	*	*	*	*	*	*
=6	=6	=6	=6	=6	=6	=6	=6	=6	=6	=6	=6
!LO:TX:a:t=P:problem=mixed beam	!	!	!	!	!	!	!	!	!	!	!
8A\L	.	4cc#\	.	4ee\	.	8A\	-son	8cc#\	-son	4r	4r
8AA/J	.	.	.	.	.	8A\	e-	8ee\	e-	.	.
!	!	!	!	!	!	!	!	!LO:SIC:v:o=8ff-\L	!	!	!
4BB-X/	-7	8dd\L	.	8ffn\L	.	4B-X\	-lei-	8ffn	-lei-	8r	8r
.	.	16cc#\L	.	16ee\L	.	.	.	16ee\L	.	8dd\	8ff#\
.	.	16b\JJ	.	16dd\JJ	.	.	.	16dd\JJ	.	.	.
*	*	*2\right	*	*2\right	*	*	*	*	*	*	*2\right
2AA/	.	2cc#\	.	2ee\	.	2A\	-son	2ee\	-son	2a/	2ee\
!LO:LB:g=original	!	!	!	!	!	!LO:LB:g=original	!	!LO:LB:g=original	!	!	!
=7||	=7||	=7||	=7||	=7||	=7||	=7||	=7||	=7||	=7||	=7||	=7||
*k[c#f#g#]	*	*k[c#g#f#]	*	*k[c#g#f#]	*	*k[f#c#g#]	*	*k[c#g#f#]	*	*	*
*M2/4	*	*M2/4	*	*M2/4	*	*M2/4	*	*M2/4	*	*	*
*	*	*	*	*	*below	*	*	*	*	*	*
!	!	!LO:TX:a:t=P:problem=krzyżyki cc# g# f#	!	!LO:TX:a:t=P:problem=krzyżyki cc# g# f#	!	!	!	!LO:TX:a:t=P:problem=krzyżyki cc# g# f#	!	!	!
!LO:TX:b:i:t=Christe	!	!	!LO:DY:t=pu	!LO:TX:b:i:t=Christe	!LO:DY:t=pia	!	!	!	!	!	!
!LO:TX:a:i:t=Andante Solo	!	!LO:TX:b:i:t=Christe	!	!LO:TX:a:t=Solo	!	!LO:TX:a:t=Solo	!	!LO:TX:a:t=Solo	!	!LO:TX:a:i:t=Christe Tacett	!LO:TX:a:i:t=Christe Tacet
8r	.	8e/	p	8a/	p	8r	.	8a\	Chris-	8ryy	8ryy
=8	=8	=8	=8	=8	=8	=8	=8	=8	=8	=8	=8
!	!	!	!	!	!	!LO:TX:a:t=8	!	!	!	!	!
!	!	!	!	!	!	!LO:N:vis=00	!	!	!	!	!
8A\L	.	8a/	.	8cc#\	.	0r	.	4.cc#\	-te	2ryy	2ryy
8A\	.	4a/	.	4cc#\	.	.	.	.	.	.	.
8A\	.	.	.	.	.	.	.	.	.	.	.
8A\J	.	16cc#/LL	.	16ee\LL	.	.	.	16ee\LL	e-	.	.
.	.	16a/JJ	.	16cc#\JJ	.	.	.	16cc#\JJ	.	.	.
=9	=9	=9	=9	=9	=9	=9	=9	=9	=9	=9	=9
8E\L	#	16g#/LL	.	16b/LL	.	.	.	16a\LL	-le-	2ryy	2ryy
.	.	16f#/JJ	.	16a/JJ	.	.	.	16a\JJ	-i-	.	.
8E\	.	4g#/	.	4b/	.	.	.	4b\	-son	.	.
8E\	.	.	.	.	.	.	.	.	.	.	.
8E\J	.	16g#/LL	.	8cc#\	.	.	.	16b\LL	e-	.	.
.	.	16a/JJ	.	.	.	.	.	16cc#\JJ	.	.	.
=10	=10	=10	=10	=10	=10	=10	=10	=10	=10	=10	=10
*tremolo	*	*	*	*	*	*	*	*	*	*	*
*tremolo	*	*	*	*	*	*	*	*	*	*	*
8E\L	7	16b\LL	.	16dd\LL	.	.	.	16dd\LL	-lei-	2ryy	2ryy
.	.	16dd\	.	16ff#\	.	.	.	16ff#\	.	.	.
8E\	.	16cc#\	.	16ee\	.	.	.	16ee\	.	.	.
.	.	16b\JJ	.	16dd\JJ	.	.	.	16dd\JJ	.	.	.
8E\	.	8a/L	.	8cc#\L	.	.	.	8cc#\L	.	.	.
8E\J	.	8g#/J	.	8b\J	.	.	.	8b\J	.	.	.
!	!	!	!	!LO:LB:g=original	!	!	!	!	!	!	!
=11	=11	=11	=11	=11	=11	=11	=11	=11	=11	=11	=11
8AA/L	.	16.a\LL	.	16.a\LL	.	.	.	4a\	-son	2ryy	2ryy
.	.	32a\K	.	32a\K	.	.	.	.	.	.	.
8AA/	.	16.cc#\	.	16.cc#\	.	.	.	.	.	.	.
.	.	32ee\JJk	.	32ee\JJk	.	.	.	.	.	.	.
!	!	!LO:TX:a:t=P:problem=mixed beam	!	!LO:TX:a:t=P:problem=mixed beam	!	!	!	!	!	!	!
8AA/	.	8aa\L	.	8aa\L	.	.	.	8r	.	.	.
8AA/J	.	8a/J	.	8a/J	.	.	.	8a\	Chris-	.	.
*Xtremolo	*	*	*	*	*	*	*	*	*	*	*
=12	=12	=12	=12	=12	=12	=12	=12	=12	=12	=12	=12
!	!	!	!	!	!	!LO:N:vis=00	!	!	!	!	!
4D\	.	16r	.	16r	.	0r	.	16dd\	-te	2ryy	2ryy
.	.	16dd\LL	.	16ff#\LL	.	.	.	16ff#\LL	e-	.	.
.	.	16cc#\	.	16ee\	.	.	.	16ee\	.	.	.
.	.	16b\JJ	.	16dd\JJ	.	.	.	16dd\JJ	.	.	.
!LO:TX:a:t=P:problem=mixed beam	!	!	!	!	!	!	!	!	!	!	!
8E\L	6 4	8a/L	.	8cc#\L	.	.	.	8cc#\L	-le-	.	.
!	!	!	!	!	!LO:DY:t=for	!	!	!	!	!	!
8EE/J	x 3	8g#/J	.	8b\J	f	.	.	8b\J	-i-	.	.
!	!	!LO:LB:g=original	!	!	!	!	!	!	!	!	!
=13	=13	=13	=13	=13	=13	=13	=13	=13	=13	=13	=13
!	!	!	!LO:DY:rj:t=for	!	!	!	!	!	!	!	!
*	*	*Xtuplet	*	*Xtuplet	*	*	*	*	*	*	*
8AA/L	.	24a/LL	f	24a/LL	.	.	.	4a\	-son	2ryy	2ryy
.	.	24e/	.	24e/	.	.	.	.	.	.	.
.	.	24a/JJ	.	24a/JJ	.	.	.	.	.	.	.
8AA/	.	24cc#/LL	.	24cc#/LL	.	.	.	.	.	.	.
.	.	24a/	.	24a/	.	.	.	.	.	.	.
.	.	24cc#/JJ	.	24cc#/JJ	.	.	.	.	.	.	.
8AA/	.	24ee\LL	.	24ee\LL	.	.	.	8r	.	.	.
.	.	24cc#\	.	24cc#\	.	.	.	.	.	.	.
.	.	24ee\JJ	.	24ee\JJ	.	.	.	.	.	.	.
8AA/J	.	16aa\LL	.	16aa\LL	.	.	.	16r	.	.	.
.	.	16ee\JJ	.	16ee\JJ	.	.	.	16ee\	e-	.	.
=14	=14	=14	=14	=14	=14	=14	=14	=14	=14	=14	=14
!LO:TX:a:t=P:problem=mixed beam	!	!	!LO:DY:t=pu	!	!	!	!	!	!	!	!
8AA/L	.	4cc#\	p	4ee\	.	.	.	4ee\	-lei-	2ryy	2ryy
8A\	.	.	.	.	.	.	.	.	.	.	.
8G#\	.	8b\L	.	8dd\L	.	.	.	(8dd\L	.	.	.
8A\J	.	8a\J	.	8cc#\J	.	.	.	8cc#\J)	.	.	.
!	!	!	!	!	!	!	!	!LO:LB:g=original	!	!	!
=15	=15	=15	=15	=15	=15	=15	=15	=15	=15	=15	=15
8E\L	.	8a/L	.	8cc#\L	.	.	.	8cc#\	.	2ryy	2ryy
8G#\	.	8g#/J	.	8b\J	.	.	.	8b\	-son	.	.
8A\	.	16b\LL	.	16b\LL	.	.	.	4r	.	.	.
.	.	16b\	.	16b\	.	.	.	.	.	.	.
8F#\J	6\	16cc#\	.	16cc#\	.	.	.	.	.	.	.
.	.	16dd#X\JJ	.	16dd#X\JJ	.	.	.	.	.	.	.
=16	=16	=16	=16	=16	=16	=16	=16	=16	=16	=16	=16
!	!	!	!	!	!	!	!	!LO:TX:a:t=6	!	!	!
!	!	!	!	!	!	!	!	!LO:N:vis=00	!	!	!
8E\L	.	8ee\	.	8ee\	.	8E\	Chris-	0r	.	2ryy	2ryy
8E\	.	4ee\	.	4gg#\	.	4G#\	-te	.	.	.	.
8E\	.	.	.	.	.	.	.	.	.	.	.
8E\J	.	16gg#X\LL	.	16bb\LL	.	(16B\LL	e-	.	.	.	.
.	.	16ee\JJ	.	16gg#\JJ	.	16G#\JJ)	.	.	.	.	.
=17	=17	=17	=17	=17	=17	=17	=17	=17	=17	=17	=17
*tremolo	*	*	*	*	*	*	*	*	*	*	*
8BB/L	.	16dd#X\LL	.	16ff#\LL	.	16F#\LL	-lei-	.	.	2ryy	2ryy
.	.	16cc#\JJ	.	16ee\JJ	.	16E\JJ	.	.	.	.	.
8BB/	.	4dd#\	.	4ff#\	.	4F#\	-son	.	.	.	.
8BB/	.	.	.	.	.	.	.	.	.	.	.
8BB/J	.	16dd#\LL	.	8gg#\	.	(16F#\LL	e-	.	.	.	.
.	.	16ee\JJ	.	.	.	16G#\JJ)	.	.	.	.	.
=18	=18	=18	=18	=18	=18	=18	=18	=18	=18	=18	=18
8BB/L	7	4ff#\	.	16aa\LL	.	16A\LL	.	.	.	2ryy	2ryy
.	.	.	.	16ccc#\	.	16c#\	.	.	.	.	.
8BB/	.	.	.	16bb\	.	16B\	.	.	.	.	.
.	.	.	.	16aa\JJ	.	16A\JJ	.	.	.	.	.
8BB/	.	8ee\L	.	8gg#\L	.	8G#\L	-le-	.	.	.	.
8BB/J	.	8dd#X\J	.	8ff#\J	.	8F#\J	-i-	.	.	.	.
*Xtremolo	*	*	*	*	*	*	*	*	*	*	*
!	!	!	!	!LO:LB:g=original	!	!	!	!	!	!	!
=19	=19	=19	=19	=19	=19	=19	=19	=19	=19	=19	=19
8E\L	.	16ee\LL	.	16ee\LL	.	4E\	-son	.	.	2ryy	2ryy
.	.	16b\	.	16b\	.	.	.	.	.	.	.
8E\	.	16cc#\	.	16cc#\	.	.	.	.	.	.	.
!	!	!LO:SIC:v:o=16dd\JJ	!	!	!	!	!	!	!	!	!
.	.	dd#	.	16dd#X\JJ	.	.	.	.	.	.	.
8E\	.	16ee\LL	.	16ee\LL	.	4r	.	.	.	.	.
.	.	16gg#\	.	16gg#\	.	.	.	.	.	.	.
8E\J	.	16ff#\	.	16ff#\	.	.	.	.	.	.	.
.	.	16ee\JJ	.	16ee\JJ	.	.	.	.	.	.	.
=20	=20	=20	=20	=20	=20	=20	=20	=20	=20	=20	=20
*tremolo	*	*	*	*	*	*	*	*	*	*	*
!	!	!LO:SIC:v:o=16dd\LL	!	!	!	!	!	!LO:N:vis=0	!	!	!
8BB/L	6 3	dd#	.	16ff#\LL	.	16F#\LL	Chris-	1r	.	2ryy	2ryy
.	6 4	16cc#\JJ	.	16ee\JJ	.	16E\JJ	.	.	.	.	.
!	!	!LO:SIC:v:o=4dd\	!	!	!	!	!	!	!	!	!
8BB/	.	dd#	.	4ff#\	.	4F#\	-te	.	.	.	.
8BB/	.	.	.	.	.	.	.	.	.	.	.
!	!	!LO:SIC:v:o=16dd\LL	!	!	!	!	!	!	!	!	!
8BB/J	.	dd#	.	8gg#\	.	16F#\LL	e-	.	.	.	.
.	.	16ee\JJ	.	.	.	16G#\JJ	.	.	.	.	.
=21	=21	=21	=21	=21	=21	=21	=21	=21	=21	=21	=21
8BB/L	7 5	4ff#\	.	16aa\LL	.	16A\LL	-lei-	.	.	2ryy	2ryy
.	.	.	.	16ccc#\	.	16c#\	.	.	.	.	.
8BB/	.	.	.	16bb\	.	16B\	.	.	.	.	.
.	.	.	.	16aa\JJ	.	16A\JJ	.	.	.	.	.
8BB/	.	8ee\L	.	8gg#\L	.	8G#\L	.	.	.	.	.
8BB/J	.	8dd#X\J	.	8ff#\J	.	8F#\J	.	.	.	.	.
*Xtremolo	*	*	*	*	*	*	*	*	*	*	*
!LO:LB:g=original	!	!LO:LB:g=original	!	!	!	!	!	!	!	!	!
=22	=22	=22	=22	=22	=22	=22	=22	=22	=22	=22	=22
8E\L	.	16ee\LL	.	16ee\LL	.	4E\	-son	4r	.	2ryy	2ryy
.	.	16b\	.	16b\	.	.	.	.	.	.	.
8BB\J	.	16b\	.	(16b\	.	.	.	.	.	.	.
.	.	16g#\JJ	.	16g#\JJ)	.	.	.	.	.	.	.
4EE/	.	8e/	.	8e/	.	4r	.	8r	.	.	.
.	.	8r	.	8r	.	.	.	8ee\	Chris-	.	.
=23	=23	=23	=23	=23	=23	=23	=23	=23	=23	=23	=23
!	!	!	!	!LO:N:vis=8	!	!LO:TX:a:t=8	!	!	!	!	!
!	!	!	!	!	!	!LO:N:vis=00	!	!	!	!	!
8r	.	16r	.	16r	.	0r	.	4ggn\	-te	2ryy	2ryy
.	.	16ggn\LL	.	16ggn\LL	.	.	.	.	.	.	.
8A#X\L	5	16gg\	.	16gg\	.	.	.	.	.	.	.
.	.	16gg\JJ	.	16gg\JJ	.	.	.	.	.	.	.
*	*	*tremolo	*	*tremolo	*	*	*	*	*	*	*
8A#\	.	16gg\LL	.	16gg\LL	.	.	.	4a#X\	e-	.	.
.	.	16gg\	.	16gg\	.	.	.	.	.	.	.
8A#\J	.	16gg\	.	16gg\	.	.	.	.	.	.	.
.	.	16gg\JJ	.	16gg\JJ	.	.	.	.	.	.	.
*	*	*Xtremolo	*	*Xtremolo	*	*	*	*	*	*	*
=24	=24	=24	=24	=24	=24	=24	=24	=24	=24	=24	=24
8B\L	-3	8ff#\	.	8ff#\	.	.	.	16b\LL	-le-	2ryy	2ryy
!	!	!	!	!	!	!	!	!LO:SIC:v:o=16a\JJ	!	!	!
.	.	.	.	.	.	.	.	s=a#	-i-	.	.
!	!	!	!	!	!	!	!	!LO:N:vis=4	!	!	!
8F#\	.	4b\	.	4b\	.	.	.	8b\	-son	.	.
8D\	.	.	.	.	.	.	.	8r	.	.	.
8BB\J	.	8dd\	.	8dd\	.	.	.	8dd\	Chris-	.	.
=25	=25	=25	=25	=25	=25	=25	=25	=25	=25	=25	=25
8r	.	16r	.	16r	.	.	.	4ff#\	-te	2ryy	2ryy
.	.	16ff#\LL	.	16ff#\LL	.	.	.	.	.	.	.
8G#\L	.	16ff#\	.	16ff#\	.	.	.	.	.	.	.
.	.	16ff#\JJ	.	16ff#\JJ	.	.	.	.	.	.	.
*	*	*tremolo	*	*tremolo	*	*	*	*	*	*	*
8G#\	.	16ff#\LL	.	16ff#\LL	.	.	.	4g#\	e-	.	.
.	.	16ff#\	.	16ff#\	.	.	.	.	.	.	.
8G#\J	.	16ff#\	.	16ff#\	.	.	.	.	.	.	.
.	.	16ff#\JJ	.	16ff#\JJ	.	.	.	.	.	.	.
*	*	*Xtremolo	*	*Xtremolo	*	*	*	*	*	*	*
=26	=26	=26	=26	=26	=26	=26	=26	=26	=26	=26	=26
8An\L	#3	8ee\	.	8ee\	.	.	.	16an\LL	-le-	2ryy	2ryy
.	.	.	.	.	.	.	.	16g#\JJ	-i-	.	.
8E\	.	4a/	.	4a/	.	.	.	8a\	-son	.	.
8C#\	.	.	.	.	.	.	.	8r	.	.	.
8AA\J	.	8g#X/	.	8b/	.	.	.	8b\	e-	.	.
=27	=27	=27	=27	=27	=27	=27	=27	=27	=27	=27	=27
!	!	!	!	!	!	!LO:N:vis=00	!	!	!	!	!
4A\	.	8a/L	.	16cc#\LL	.	0r	.	4.cc#\	-lei-	2ryy	2ryy
.	.	.	.	16a\	.	.	.	.	.	.	.
.	.	8cc#/J	.	16ee\	.	.	.	.	.	.	.
.	.	.	.	16cc#\JJ	.	.	.	.	.	.	.
!	!	!	!	!LO:LB:g=original	!	!	!	!	!	!	!
4AA/	.	16r	.	16aa\LL	.	.	.	.	.	.	.
.	.	16cc#/LL	.	16ee\	.	.	.	.	.	.	.
*	*	*	*	*	*	*	*	*Xtuplet	*	*	*
!	!	!	!	!	!	!	!	!LO:TUP:a:problem=klamra łukowa	!	!	!
.	.	16b/	.	16dd\	.	.	.	24ee\LL	.	.	.
.	.	.	.	.	.	.	.	24dd\	.	.	.
.	.	16a/JJ	.	16cc#\JJ	.	.	.	.	.	.	.
.	.	.	.	.	.	.	.	24cc#\JJ	.	.	.
=28	=28	=28	=28	=28	=28	=28	=28	=28	=28	=28	=28
.	.	.	.	.	.	.	.	8qqcc#/	.	.	.
!	!	!LO:SIC:v:o=8a/L	!LO:DY:t=for	!	!	!	!	!	!	!	!
8E\L	6 4	s=g#	f	8b/L	.	.	.	4b\	-son	2ryy	2ryy
16E\L	5 3	8e/J	.	8e/J	.	.	.	.	.	.	.
!	!	!	!	!	!LO:DY:t=for	!	!	!	!	!	!
16F#\JJ	.	.	.	.	f	.	.	.	.	.	.
16E\LL|	.	16e/LL	.	16e/LL	.	.	.	4r	.	.	.
16D\|	.	16d/	.	16d/	.	.	.	.	.	.	.
16C#\|	.	16c#/	.	16c#/	.	.	.	.	.	.	.
16BB\JJ|	.	16B/JJ	.	16B/JJ	.	.	.	.	.	.	.
=29	=29	=29	=29	=29	=29	=29	=29	=29	=29	=29	=29
!LO:TX:a:t=P:problem=za długa pauza w Basso	!	!LO:TX:a:t=P:problem=za długa pauza w Basso	!	!LO:TX:a:t=P:problem=za długa pauza w Basso	!	!LO:TX:a:t=P:problem=za długa pauza	!	!LO:TX:a:t=P:problem=za długa pauza w Basso	!	!LO:TX:a:t=P:problem=za długa pauza w Basso	!LO:TX:a:t=P:problem=za długa pauza w Basso
2ryy	.	2ryy	.	2ryy	.	.	.	2ryy	.	2ryy	2ryy
=30	=30	=30	=30	=30	=30	=30	=30	=30	=30	=30	=30
2ryy	.	2ryy	.	2ryy	.	.	.	2ryy	.	2ryy	2ryy
!	!	!	!	!	!	!LO:LB:g=original	!	!	!	!	!
=31	=31	=31	=31	=31	=31	=31	=31	=31	=31	=31	=31
!	!	!	!	!	!LO:DY:t=pia.	!	!	!	!	!	!
8AA/L	.	8A/	.	8A/	p	8A\	Chris-	8a\	Chris-	2ryy	2ryy
8AA/	.	4a/	.	4cc#\	.	4A\	-te	4cc#\	-te	.	.
8AA/	.	.	.	.	.	.	.	.	.	.	.
8AA/J	.	16cc#/LL	.	16ee\LL	.	(16c#\LL	e-	16ee\LL	e-	.	.
.	.	16a/JJ	.	16cc#\JJ	.	16A\JJ)	.	16cc#\JJ	.	.	.
!	!	!	!	!	!	!	!	!LO:LB:g=original	!	!	!
=32	=32	=32	=32	=32	=32	=32	=32	=32	=32	=32	=32
*tremolo	*	*	*	*	*	*	*	*	*	*	*
8E\L	.	16g#/LL	.	16b/LL	.	16G#\LL	-lei-	16b\LL	-le-	2ryy	2ryy
.	.	16f#/JJ	.	16a/JJ	.	16F#\JJ	.	16a\JJ	-i-	.	.
8E\	.	4g#/	.	4b/	.	4G#\	-son	4b\	-son	.	.
8E\	.	.	.	.	.	.	.	.	.	.	.
8E\J	.	8a/	.	8cc#/	.	16G#\LL	e-	16b\LL	e-	.	.
.	.	.	.	.	.	16A\JJ	.	16cc#\JJ	.	.	.
=33	=33	=33	=33	=33	=33	=33	=33	=33	=33	=33	=33
8E\L	7	4b/	.	4dd\	.	4B\	-lei-	4dd\	-lei-	2ryy	2ryy
8E\	.	.	.	.	.	.	.	.	.	.	.
8E\	.	8a/L	.	8cc#\L	.	(8A\L	.	(8cc#\L	.	.	.
8E\J	.	8g#/J	.	8b\J	.	8G#\J)	.	8b\J)	.	.	.
*Xtremolo	*	*	*	*	*	*	*	*	*	*	*
!	!	!LO:LB:g=original	!	!	!	!	!	!	!	!	!
=34	=34	=34	=34	=34	=34	=34	=34	=34	=34	=34	=34
!LO:TX:a:t=P:problem=mixed beam	!	!	!	!	!	!	!	!	!	!	!
8AA/L	.	16a/LL	.	16cc#\LL	.	4A\	-son	4cc#\	-son	2ryy	2ryy
.	.	16cc#/	.	16a\	.	.	.	.	.	.	.
8A\	.	16cc#/	.	16aa\	.	.	.	.	.	.	.
.	.	16cc#/JJ	.	16aa\JJ	.	.	.	.	.	.	.
*	*	*tremolo	*	*	*	*	*	*	*	*	*
8A\	.	16cc#/LL	.	16aa\LL	.	8r	.	8r	.	.	.
.	.	16cc#/	.	16aa\	.	.	.	.	.	.	.
8G#\J	.	16cc#/	.	16aa\	.	8c#\	e-	8a\	e-	.	.
.	.	16cc#/JJ	.	16aa\JJ	.	.	.	.	.	.	.
=35	=35	=35	=35	=35	=35	=35	=35	=35	=35	=35	=35
*	*	*	*	*tremolo	*	*	*	*	*	*	*
8F#\L	.	16cc#\LL	.	16aa\LL	.	2c#\	-lei-	2aa\	-lei-	2ryy	2ryy
.	.	16cc#\	.	16aa\	.	.	.	.	.	.	.
8F#\	.	16cc#\	.	16aa\	.	.	.	.	.	.	.
.	.	16cc#\JJ	.	16aa\JJ	.	.	.	.	.	.	.
8F#\	.	16cc#\LL	.	16aa\LL	.	.	.	.	.	.	.
.	.	16cc#\	.	16aa\	.	.	.	.	.	.	.
8E\J	.	16cc#\	.	16aa\	.	.	.	.	.	.	.
.	.	16cc#\JJ	.	16aa\JJ	.	.	.	.	.	.	.
=36	=36	=36	=36	=36	=36	=36	=36	=36	=36	=36	=36
*tremolo	*	*	*	*	*	*	*	*	*	*	*
!	!	!LO:TX:a:t=P:problem=takt zapisany repetycją	!	!	!	!	!	!	!	!	!
8D#X\L	7 -n5	16cc#\LLyy	.	16aa\LL	.	2B\	.	2aa\	.	2ryy	2ryy
.	.	16cc#\yy	.	16aa\	.	.	.	.	.	.	.
8D#X\	.	16cc#\yy	.	16aa\	.	.	.	.	.	.	.
.	.	16cc#\JJyy	.	16aa\JJ	.	.	.	.	.	.	.
8D#X\	.	16cc#\LLyy	.	16aa\LL	.	.	.	.	.	.	.
.	.	16cc#\yy	.	16aa\	.	.	.	.	.	.	.
8D#X\J	.	16cc#\yy	.	16aa\	.	.	.	.	.	.	.
.	.	16cc#\JJyy	.	16aa\JJ	.	.	.	.	.	.	.
*Xtremolo	*	*	*	*Xtremolo	*	*	*	*	*	*	*
=37	=37	=37	=37	=37	=37	=37	=37	=37	=37	=37	=37
8E\L	#	16b\LL	.	16gg#X\LL	.	2E\	.	2gg#X\	.	2ryy	2ryy
.	.	16b\	.	16gg#\	.	.	.	.	.	.	.
8E\	.	16b\	.	16gg#\	.	.	.	.	.	.	.
.	.	16b\JJ	.	16gg#\JJ	.	.	.	.	.	.	.
*	*	*	*	*tremolo	*	*	*	*	*	*	*
8E\	.	16b\LL	.	16gg#\LL	.	.	.	.	.	.	.
.	.	16b\	.	16gg#\	.	.	.	.	.	.	.
8Dn\J	.	16b\	.	16gg#\	.	.	.	.	.	.	.
.	.	16b\JJ	.	16gg#\JJ	.	.	.	.	.	.	.
*	*	*Xtremolo	*	*Xtremolo	*	*	*	*	*	*	*
!LO:LB:g=original	!	!	!	!	!	!	!	!	!	!	!
=38	=38	=38	=38	=38	=38	=38	=38	=38	=38	=38	=38
!LO:TX:a:t=P:problem=mixed beam	!	!	!	!	!	!	!	!	!	!	!
8C#\L	.	4cc#\	.	4aa\	.	8A\	-son	8aa\	-son	2ryy	2ryy
!	!	!	!	!	!	!	!	!LO:TUP:a:problem=klamra łukowa	!	!	!
8D\	.	.	.	.	.	8D\	e-	24ff#\LL	e-	.	.
.	.	.	.	.	.	.	.	24ee\	.	.	.
.	.	.	.	.	.	.	.	24dd\JJ	.	.	.
8E\	6 4	4r	.	4r	.	4E\	-lei-	8cc#\L	-le-	.	.
8EE/J	5 3	.	.	.	.	.	.	8b\J	-i-	.	.
=39	=39	=39	=39	=39	=39	=39	=39	=39	=39	=39	=39
!	!	!	!	!	!LO:DY:rj:t=fo	!	!	!	!	!	!
8A\L	.	16ee\LL	.	16cc#\LL	f	4AA/	-son	4a\	-son	2ryy	2ryy
.	.	[16cc#\	.	16a\	.	.	.	.	.	.	.
8c#\	.	16cc#\]	.	16ee\	.	.	.	.	.	.	.
.	.	16a\JJ	.	16cc#\JJ	.	.	.	.	.	.	.
!	!	!	!	!LO:LB:g=original	!	!	!	!	!	!	!
8E\	7	16dd\LL	.	16b/LL	.	4r	.	4r	.	.	.
.	.	[16b\	.	16e/	.	.	.	.	.	.	.
8G#\J	5	16b\]	.	16dd/	.	.	.	.	.	.	.
.	.	16g#\JJ	.	16b/JJ	.	.	.	.	.	.	.
=40	=40	=40	=40	=40	=40	=40	=40	=40	=40	=40	=40
!	!	!	!	!	!	!LO:TX:a:t=4	!	!LO:TX:a:t=4	!	!	!
!	!	!	!	!	!	!LO:N:vis=00	!	!LO:N:vis=00	!	!	!
8A\L	.	16ee\LL	.	16cc#\LL	.	0r	.	0r	.	2ryy	2ryy
.	.	[16cc#\	.	16a\	.	.	.	.	.	.	.
8c#\	.	16cc#\]	.	16ee\	.	.	.	.	.	.	.
.	.	16a\JJ	.	16cc#\JJ	.	.	.	.	.	.	.
8E\	7	16dd\LL	.	16b/LL	.	.	.	.	.	.	.
.	.	[16b\	.	16e/	.	.	.	.	.	.	.
8G#\J	5	16b\]	.	16dd/	.	.	.	.	.	.	.
.	.	16g#\JJ	.	16b/JJ	.	.	.	.	.	.	.
=41	=41	=41	=41	=41	=41	=41	=41	=41	=41	=41	=41
!LO:TX:a:t=P:problem=mixed beam	!	!	!	!	!	!	!	!	!	!	!
8A\L	.	16.a\LL	.	16.cc#\LL	.	.	.	.	.	2ryy	2ryy
.	.	32a\K	.	32a\K	.	.	.	.	.	.	.
8AA/J	.	16.cc#\	.	16.cc#\	.	.	.	.	.	.	.
.	.	32ee\JJk	.	32ee\JJk	.	.	.	.	.	.	.
16r	.	4aa\	.	4aa\	.	.	.	.	.	.	.
16AA/LL	.	.	.	.	.	.	.	.	.	.	.
16C#/	.	.	.	.	.	.	.	.	.	.	.
16E/JJ	.	.	.	.	.	.	.	.	.	.	.
=42	=42	=42	=42	=42	=42	=42	=42	=42	=42	=42	=42
!LO:TX:a:t=P:problem=mixed beam	!	!	!	!	!	!	!	!	!	!	!
8A\L	.	8dd\L	.	8aa\L	.	.	.	.	.	2ryy	2ryy
*	*	*	*	*tuplet	*	*	*	*	*	*	*
!	!	!	!	!LO:TUP:a:problem=klamra łukowa	!	!	!	!	!	!	!
8D\	.	16cc#\L	.	24ff#\L	.	.	.	.	.	.	.
.	.	.	.	24ee\	.	.	.	.	.	.	.
.	.	16b\JJ	.	.	.	.	.	.	.	.	.
.	.	.	.	24dd\JJ	.	.	.	.	.	.	.
8E\	6 4	8a/L	.	8cc#\L	.	.	.	.	.	.	.
8EE/J	5 3	8g#/J	.	8b\J	.	.	.	.	.	.	.
=43	=43	=43	=43	=43	=43	=43	=43	=43	=43	=43	=43
8A\L	.	8a/L	.	8a/L	.	.	.	.	.	2ryy	2ryy
8E\J	.	8e/J	.	8e/J	.	.	.	.	.	.	.
4AA/	.	4A/	.	4A/	.	.	.	.	.	.	.
!	!	!LO:LB:g=original	!	!	!	!LO:LB:g=original	!	!LO:LB:g=original	!	!LO:LB:g=original	!LO:LB:g=original
=44||	=44||	=44||	=44||	=44||	=44||	=44||	=44||	=44||	=44||	=44||	=44||
*k[c#f#]	*	*k[c#f#]	*	*k[c#f#]	*	*k[c#f#]	*	*k[c#f#]	*	*k[f#c#]	*k[f#c#]
*M4/4	*	*M4/4	*	*M4/4	*	*M4/4	*	*M4/4	*	*M4/4	*M4/4
*met(c)	*	*met(c)	*	*met(c)	*	*met(c)	*	*met(c)	*	*met(c)	*met(c)
!	!	!LO:TX:a:t=P:problem=krzyżyki cc# f# jeden pod drugim	!	!LO:TX:a:t=P:problem=krzyżyki cc# f#	!	!	!	!LO:TX:a:t=P:problem=krzyżyki cc# f#	!	!	!
!	!	!LO:TX:a:i:t=Allo	!	!LO:TX:a:i:t=Allo	!	!	!	!	!	!LO:TX:a:i:t=Allo	!LO:TX:b:i:t=Kirye
!LO:TX:a:t=Allo	!	!LO:TX:b:i:t=Kirye	!	!LO:TX:b:i:t=Kirye	!	!LO:TX:a:t=Allo	!	!LO:TX:a:t=Allo	!	!LO:TX:b:i:t=Kirye.	!LO:TX:a:i:t=Allo
8D\L	.	4ff# 4a 4d/	.	4ff# 4a 4d/	.	8D\L	Ky-	4.ff#\	Ki-	4dd\	4ff#\
8E\	.	.	.	.	.	8E\J	.	.	.	.	.
8F#\	.	4ff# 4a 4d/	.	8r	.	8F#\L	-ri-	.	.	4dd\	4ff#\
8D\J	.	.	.	8ff# 8a 8d/	.	8D\J	.	8ff#\	-ry-	.	.
4A\	6 4	16.ee\LL	.	16.cc#\LL	.	4A\	-e	4ee\	-e	4a/	4ee\
.	.	32a\K	.	32a\K	.	.	.	.	.	.	.
.	.	16.cc#\	.	16.cc#\	.	.	.	.	.	.	.
.	.	32ee\JJk	.	32ee\JJk	.	.	.	.	.	.	.
!	!	!LO:TX:a:t=P:problem=mixed beam	!	!LO:TX:a:t=P:problem=mixed beam	!	!	!	!	!	!	!
4AA/	x 3	8aa\L	.	8aa\L	.	8r	.	8r	.	4r	4r
.	.	8a/J	.	8a/J	.	8A\	e-	8ee\	e-	.	.
=45	=45	=45	=45	=45	=45	=45	=45	=45	=45	=45	=45
8D\L	.	4ff# 4a 4d/	.	4ff# 4a 4d/	.	8D\L	-lei-	4ff#\	-lei-	4dd\	4ff#\
8E\	.	.	.	.	.	8E\J	.	.	.	.	.
8F#\	.	4ff# 4a 4d/	.	8r	.	8F#\L	.	(4ff#\	-son	4dd\	4ff#\
8D\J	.	.	.	8ff# 8a 8d/	.	8D\J	.	.	.	.	.
4A\	6 4	16.ee\LL	.	16.cc#\LL	.	4A\	-son	4ee\)	.	4a/	4ee\
.	.	32a\K	.	32a\K	.	.	.	.	.	.	.
.	.	16.cc#\	.	16.cc#\	.	.	.	.	.	.	.
.	.	32ee\JJk	.	32ee\JJk	.	.	.	.	.	.	.
!	!	!LO:TX:a:t=P:problem=mixed beam	!	!LO:TX:a:t=P:problem=mixed beam	!	!	!	!	!	!	!
4AA/	x 3	8aa\L	.	8aa\L	.	8r	.	8r	.	4r	4r
.	.	8a/J	.	8a/J	.	8F#\	e-	8a\	e-	.	.
=46	=46	=46	=46	=46	=46	=46	=46	=46	=46	=46	=46
*tremolo	*	*	*	*	*	*	*	*	*	*	*
8G\L	.	16b\LL	.	16b\LL	.	2G\	-lei-	4b\	-lei-	4r	4gg\
.	.	16b\	.	16b\	.	.	.	.	.	.	.
8G\	.	16dd\	.	16dd\	.	.	.	.	.	.	.
.	.	16dd\JJ	.	16dd\JJ	.	.	.	.	.	.	.
!	!	!	!	!LO:LB:g=original	!	!	!	!	!	!	!
8G\	.	16gg\LL	.	16gg\LL	.	.	.	4dd\	-son	4gg\	4bb\
.	.	16gg\	.	16gg\	.	.	.	.	.	.	.
8G\J	.	16bb\	.	16bb\	.	.	.	.	.	.	.
.	.	16bb\JJ	.	16bb\JJ	.	.	.	.	.	.	.
8G\L	.	16b\LL	.	16b\LL	.	4G\	-son	(4gg\	e-	4gg\	4bb\
.	.	16b\	.	16b\	.	.	.	.	.	.	.
8G\	.	16dd\	.	16dd\	.	.	.	.	.	.	.
.	.	16dd\JJ	.	16dd\JJ	.	.	.	.	.	.	.
*	*	*	*	*	*	*	*ij	*	*	*	*
8G\	.	16gg\LL	.	16gg\LL	.	4G\	e-	4b\)	.	4r	4r
.	.	16gg\	.	16gg\	.	.	.	.	.	.	.
8G\J	.	16bb\	.	16bb\	.	.	.	.	.	.	.
.	.	16bb\JJ	.	16bb\JJ	.	.	.	.	.	.	.
=47	=47	=47	=47	=47	=47	=47	=47	=47	=47	=47	=47
8D\L	.	16a\LL	.	16a\LL	.	2D\	-lei-	4a\	-lei-	4r	4ff#\
.	.	16a\	.	16a\	.	.	.	.	.	.	.
8D\	.	16dd\	.	16dd\	.	.	.	.	.	.	.
.	.	16dd\JJ	.	16dd\JJ	.	.	.	.	.	.	.
8D\	.	16ff#\LL	.	16ff#\LL	.	.	.	4dd\	-son	4ff#\	4aa\
.	.	16ff#\	.	16ff#\	.	.	.	.	.	.	.
8D\J	.	16aa\	.	16aa\	.	.	.	.	.	.	.
.	.	16aa\JJ	.	16aa\JJ	.	.	.	.	.	.	.
8D\L	.	16a\LL	.	16a\LL	.	4D\	-son	4ff#\	e-	4ff#\	4aa\
*	*	*	*	*	*	*	*Xij	*	*	*	*
.	.	16a\	.	16a\	.	.	.	.	.	.	.
8D\	.	16dd\	.	16dd\	.	.	.	.	.	.	.
.	.	16dd\JJ	.	16dd\JJ	.	.	.	.	.	.	.
8D\	.	16ff#\LL	.	16ff#\LL	.	4D\	e-	4aa\	.	4r	4r
.	.	16ff#\	.	16ff#\	.	.	.	.	.	.	.
8D\J	.	16aa\	.	16aa\	.	.	.	.	.	.	.
.	.	16aa\JJ	.	16aa\JJ	.	.	.	.	.	.	.
=48	=48	=48	=48	=48	=48	=48	=48	=48	=48	=48	=48
8A\L	5	16ee\LL	.	16gg\LL	.	1A	-lei-	8gg\L	-le-	8ee\L	8gg\L
.	.	16ee\	.	16gg\	.	.	.	.	.	.	.
8A\	.	16dd\	.	16ff#\	.	.	.	8ff#\J	-i-	8dd\J	8ff#\J
.	.	16dd\JJ	.	16ff#\JJ	.	.	.	.	.	.	.
8A\	.	16cc#\LL	.	16ee\LL	.	.	.	8ee\	-son	4a/	4ee\
.	.	16cc#\	.	16ee\	.	.	.	.	.	.	.
8A\J	.	16b\	.	16dd\	.	.	.	8dd\	e-	.	.
.	.	16b\JJ	.	16dd\JJ	.	.	.	.	.	.	.
8A\L	.	16a/LL	.	16cc#\LL	.	.	.	8cc#\L	-le-	4r	2rg
.	.	16a/	.	16cc#\	.	.	.	.	.	.	.
8A\	.	16g/	.	16b\	.	.	.	8b\J	-i-	.	.
.	.	16g/JJ	.	16b\JJ	.	.	.	.	.	.	.
8A\	.	16f#/LL	.	16a/LL	.	.	.	8a\	-son	4r	.
.	.	16f#/	.	16a/	.	.	.	.	.	.	.
8A\J	.	16e/	.	16g/	.	.	.	8cc#\	e-	.	.
.	.	16e/JJ	.	16g/JJ	.	.	.	.	.	.	.
*Xtremolo	*	*	*	*	*	*	*	*	*	*	*
*Xtremolo	*	*	*	*	*	*	*	*	*	*	*
!LO:LB:g=original	!	!	!	!	!	!	!	!	!	!	!
=49	=49	=49	=49	=49	=49	=49	=49	=49	=49	=49	=49
!	!	!LO:TX:a:t=P:problem=mixed beam	!	!LO:TX:a:t=P:problem=mixed beam	!	!	!	!	!	!	!
8D\L	.	8d/L	.	8f#/L	.	8d\	-son	4dd\	-le-	4dd\	4ff#\
8F#\	.	8dd\	.	8dd\	.	8D\	e-	.	.	.	.
8G\	.	8e/	.	8e/	.	8G\L	-lei-	4cc#\	-i-	4a/	4ee\
8A\J	.	8cc#\J	.	8cc#\J	.	8A\J	.	.	.	.	.
4D\	.	4dd\	.	4dd\	.	4D\	-son	4dd\	-son	4dd\	4ff#\
8r	.	8r	.	8r	.	8r	.	8r	.	4r	4r
8D\	.	8ff#\	.	8ddd\	.	8D\	e-	8dd\	e-	.	.
=50	=50	=50	=50	=50	=50	=50	=50	=50	=50	=50	=50
4A\	6 4	4ff# 4a 4d/	.	4ddd\	.	4A\	-lei-	4dd\	-le-	4dd\	4ff#\
4AA/	5 3	4ee 4a/	.	4ccc#\	.	4AA/	.	4cc#\	-i-	4a/	4ee\
4D\|	.	4ff# 4a 4d/	.	4ddd\	.	4D\	-son	4dd\	-son	4dd\	4ff#\
4r	.	4r	.	4r	.	4r	.	4r	.	4r	4r
==	==	==	==	==	==	==	==	==	==	==	==
*-	*-	*-	*-	*-	*-	*-	*-	*-	*-	*-	*-
!!!system-decoration: [g1][g2][g3]s7
!!!RDF**kern: | = vertical stroke
!!!ENC: Zofia Niedbalska
!!!END: 2020-12-04
!!!ENC: Marcin Jachim
!!!END: 2020-05-11
